X: 77
%%NRChange 2025-07-12
T: Sk\aalarna efter Byss Kalle (Nr. 9)
O: Sweden
R: Polka
M: 4/4
L: 1/8
Q: 1/4=160
K: Gmaj
P: A
"G"G2d2 d2d2|"C"(cB)cd c2Ac|"G"B2B2 (dB)GB|1 "D"A2D2 D4:|2 "D"A2D2 (DE)FG ||
A2A2 (AB)GB|A2D2 (DE)FG|A2A2 (AB)GB|A2D2 D2Ac|
"G"(BA)GF G2Ac|(BA)GF G2A2|(BG)dG "D"(BA)dF|"G"[B,4G4][B,4G4]:|]
P: B
[K:Gm] "Gm"B2d2 d2Bd|"C"(dc)cc (=ec)Ac|"Gm"(cB)BB (Bd)cB|"D"B2AB A4|
"Gm"B2d2 d2Bd|"C"(dc)cc (=ec)Ac|"Gm"(cB)BB (Bd)cB|"D"B2AB (AG)^FG|
A2A2 (AB)GB|A2D2 (DE)FG|A2A2 (AB)GB|A2D2 D2Ac|
"G"(BA)GF G2Ac|(BA)GF G2A2|(BG)dG "D"(BA)dF|"G"[B,4G4][B,4G4]:|]

